!!!!SEGMENT: ss055-OrientalMusic_M.krn
!!!COM: J. S. ZAMECNIK
!!!OTL: ORIENTAL MUSIC
!!!OPR:Sam Fox Moving Picture Music, Volume1
!!!YOY:1913
!!!ONB: National
**kern	**dynam
*>[A,A1,B,B1,B,B2,A,A2,C,C1,C,C2,D]	*>[A,A1,B,B1,B,B2,A,A2,C,C1,C,C2,D]
*>A	*>A
*clefG2	*
*k[]	*
*a:	*
*M2/2	*
*met(c|)	*
=1	=1
!LO:TX:a:B:t=All'o mod'to	!
2ee	mf
2ee	.
=2	=2
2ee	.
8ddL	.
8cc	.
8b	.
8ccJ	.
=3	=3
2a	.
8ddL	.
8cc	.
8b	.
8ccJ	.
=4	=4
2a	.
8aL	.
8b	.
8cc	.
8aJ	.
=5	=5
4b	<
4b	.
4cc	.
4cc	[[
=6	=6
2b	.
8aL	.
8b	.
8cc	.
8aJ	.
=7	=7
4b	<
4b	.
4cc	.
4cc	[
=8	=8
2ee	f
4cc	.
4cc	.
=9	=9
2ee	.
4cc	.
4cc	.
=10	=10
1ee	>]
=11	=11
2ee	mf
2ee	.
=12	=12
2ee	.
8ddL	.
8cc	.
8b	.
8ccJ	.
=13	=13
2a	.
8ddL	.
8cc	.
8b	.
8ccJ	.
=14	=14
2a	.
8aL	.
8b	.
8cc	.
8aJ	.
=15	=15
4ff	.
4ff	.
4gg	.
4gg	.
=16	=16
2ee	.
8ddL	.
8ee	.
8ff	.
8ddJ	.
=17	=17
8ccL	.
8dd	.
8ee	.
8ccJ	.
8bL	.
8cc	.
8dd	.
8bJ	.
=18	=18
2a	.
(4f	.
4e)	.
=19	=19
2a	.
(4f	.
4e)	.
=20	=20
[1a	.
*>A1	*>A1
=21	=21
4.a]	.
8g	<
8aL	.
8b	.
8cc	.
8ddJ	[[
*>A2	*>A2
=22||	=22||
!LO:TX:a:i:t=Fine	!
2.a	.
!LO:TX:b:t=to Trio	!
4r	.
*>B	*>B
=23!|:	=23!|:
2ee^	f
2gg^	.
=24	=24
4aa^	.
4ee^	.
4r	.
4ee	.
=25	=25
4.ff	.
8ee	.
8ddL	.
8ee	.
8dd	.
8ccJ	.
=26	=26
8bL	.
8cc	.
8b	.
8aJ	.
4g	.
8aL	.
8bJ	.
=27	=27
2cc^	.
2ee^	.
=28	=28
4ff^	.
4cc^	.
4r	.
4cc	.
=29	=29
4.b	.
8b	.
(4cc	.
4b)	.
*>B1	*>B1
=30	=30
4.ee	.
8g	.
8aL	.
8b	.
8cc	.
8ddJ	.
*>B2	*>B2
=31:|!	=31:|!
2.ee	.
4r	.
=32	=32
2r	.
4r	.
4ee	.
=33	=33
4ee	.
4ee	.
4ee	.
4r	.
=34	=34
2r	.
4r	.
4ee	.
=35	=35
4ee	.
4ee	.
4ee	.
4r	.
=36	=36
2r	.
4r	.
4ee	.
=37	=37
4ee	.
4ee	.
4ee	.
4ee^	.
=38	=38
4aa^	.
4r	.
2r	>
=39	=39
!LO:TX:b:i:t=D.C. al Fine	!
1r	]]
*>C	*>C
=40||	=40||
*k[]	*
*C:	*
!LO:TX:a:i:t=TRIO	!
(4g	mf
8aL	.
8bJ)	.
4cc	.
4cc	.
=41	=41
4b	.
4cc	.
4a	.
4b	.
=42	=42
4g	.
4a	.
4e	.
4f	.
=43	=43
1g	.
=44	=44
2f	.
4e	.
4d	.
=45	=45
1g	.
*>C1	*>C1
=46	=46
4f	.
4e	.
4d	.
4e	.
=47	=47
1c	.
*>C2	*>C2
=48:|!	=48:|!
4f	<
4e	.
4d	.
4f	[[
=49	=49
1e	>]
*>D	*>D
=50||	=50||
(4e	mf
8g#XL	.
8aJ)	.
4b	.
4b	.
=51	=51
4b	.
4b	.
4b	.
(8qdd#X/	.
4ee)	.
=52	=52
(8ccL	.
8bJ	.
2a)	.
(8qdd#X/	.
4ee)	.
=53	=53
(8ccL	.
8bJ	.
2.a)	.
=54	=54
(4e	.
8g#XL	.
8aJ	.
4b)	.
4b	.
=55	=55
4b	.
4b	.
4b	.
4cc	.
=56	=56
(8aL	.
8fJ	.
2e)	.
4e	.
=57	=57
(8aL	.
8fJ	.
2e)	.
4e	.
!!linebreak:original
=58	=58
(4e	.
8g#XL	.
8aJ	.
4b)	.
4b	.
=59	=59
4b	.
4b	.
4b	.
(8qdd#X/	.
4ee)	.
=60	=60
(8ccL	.
8bJ	.
2a)	.
(8qdd#X/	.
4ee)	.
=61	=61
(8ccL	f
8bJ	.
2a)	.
4a	.
=62	=62
1b-X^	.
=63	=63
2.b	.
4b	.
=64	=64
1cc^	.
=65	=65
2.b	.
4r	.
=66	=66
4r	.
2.bb^	.
=67	=67
4r	.
2.bb^	.
=68	=68
4r	.
2.bb^	.
=69	=69
4r	.
(4bb^	.
4b)	.
4r	.
=70	=70
4r	.
2.b^	.
=71	=71
4r	.
2.b^	.
=72	=72
4r	.
2.b^	.
=73	=73
4r	.
(4b^	.
4B)	.
(4B^	.
=74	=74
4A	>
4B	.
4A)	.
(4B^	.
=75	=75
4G	.
4B	.
4G)	.
(4B^	.
=76	=76
4F#X	.
4B	.
4F#)	.
(4B^	]
=77	=77
4E)	.
4r	.
2r	.
=78	=78
1r	.
!LO:TX:b:rj:Bi:t=D.C.	!
=||	=||
*-	*-
!!!ENC: Yukiko Yoden
!!!END: 2022/03/21